icons/themes/default/brackets.svg

<svg viewBox="0 0 20 20" fill="none" xmlns="http://www.w3.org/2000/svg">
<path d="M6.95946 3.5H6.55405C5.21066 3.5 4.12162 4.55824 4.12162 5.86364V8.42424C4.12162 9.29451 3.3956 10 2.5 10C3.3956 10 4.12162 10.7055 4.12162 11.5758V14.1364C4.12162 15.4418 5.21066 16.5 6.55405 16.5H6.95946M13.0405 3.5H13.4459C14.7893 3.5 15.8784 4.55824 15.8784 5.86364V8.42424C15.8784 9.29451 16.6044 10 17.5 10C16.6044 10 15.8784 10.7055 15.8784 11.5758V14.1364C15.8784 15.4418 14.7893 16.5 13.4459 16.5H13.0405" stroke="currentColor" stroke-width="1.1" stroke-linecap="round" stroke-linejoin="round"/>
</svg>

<svg xmlns="http://www.w3.org/2000/svg" fill="none" viewBox="0 0 20 20">
  <path stroke="currentColor" stroke-linecap="round" stroke-linejoin="round" stroke-width="1.1" d="M6.96 3.5h-.406c-1.343 0-2.432 1.058-2.432 2.364v2.56C4.122 9.294 3.396 10 2.5 10c.896 0 1.622.706 1.622 1.576v2.56c0 1.306 1.089 2.364 2.432 2.364h.405m6.082-13h.405c1.343 0 2.432 1.058 2.432 2.364v2.56c0 .87.726 1.576 1.622 1.576-.896 0-1.622.706-1.622 1.576v2.56c0 1.306-1.089 2.364-2.432 2.364h-.405"/>
</svg>
